X: 306
T: Zhenzhu daojun lian
%%abc-version 2.0
%%abcx-abcm2ps-target-version 5.9.1 (29 Sep 2008)
%%abc-creator hum2abc beta
%%abcx-conversion-date 2013/10/02 07:52:29
%%abc-edited-by Helmut Schaffrath
%%humdrum-veritas 3822316096
%%humdrum-veritas-data 3395249096
%%continueall 1
%%barnumbers 0
L: 1/8
M: 2/4
K: F
d2d2 [I:setbarnb 1]| 
e f c e | 
d4- | 
d4 | 
f3d | 
c2A c | 
d> f B A | 
G4- | 
G4 | 
A c A c | 
d f d c | 
A2c A | 
G A c E | 
D4- | 
D4 | 
G3D | 
G D G c | 
A> G F D | 
G4- | 
G4 | 
A c A c | 
d f d c | 
A2c3/ A/ | 
G A c E | 
D4- | 
D4 | 
G3D | 
G D G c | 
A G F D | 
G4- | 
G4 |]  



